flags/id-jt.svg

<svg width="512" height="512" viewBox="0 0 512 512" fill="none" xmlns="http://www.w3.org/2000/svg">
<rect width="512" height="512" fill="var(--flag-palette-yellow, #ffda44)"/>
<path d="M256.002 114L250.002 116L155.002 194C151.002 197 151.002 203 154.002 207L256.002 174L358.002 207C361.002 203 361.002 197 357.002 194L262.002 116L256.002 114Z" fill="var(--flag-palette-bright-red, #d80027)"/>
<path d="M256 134L157 206L163 228L214 196L256 221L298 196L349 228L355 206L256 134Z" fill="var(--flag-palette-green, #6da544)"/>
<path d="M256 191L228 251L219 230L209 251L202 235L192 256L185 240L172 267L186 290H326L340 267L328 240L320 256L310 235L303 251L293 230L284 251L256 191Z" fill="var(--flag-palette-black, #333333)"/>
<path d="M183 290L194 322H318L329 290H256H183Z" fill="var(--flag-palette-light-blue, #338af3)"/>
<path d="M255.998 129C255.25 129.136 254.556 129.483 253.998 130L153.998 203C153.305 203.392 152.743 203.982 152.387 204.694C152.031 205.407 151.895 206.21 151.998 207L189.998 324C190.225 324.88 190.745 325.657 191.472 326.202C192.199 326.747 193.09 327.029 193.998 327H317.998C318.907 327.029 319.798 326.747 320.525 326.202C321.252 325.657 321.772 324.88 321.998 324L359.998 207C360.101 206.21 359.966 205.407 359.61 204.694C359.253 203.982 358.692 203.392 357.998 203L257.998 130C257.44 129.483 256.747 129.136 255.998 129ZM255.998 138L350.998 208L314.998 319H196.998L160.998 208L255.998 138Z" fill="var(--flag-palette-white, #eeeeee)"/>
<path d="M261 174.5C261 172.015 258.985 170 256.5 170C254.015 170 252 172.015 252 174.5V307.5C252 309.985 254.015 312 256.5 312C258.985 312 261 309.985 261 307.5V174.5Z" fill="var(--flag-palette-gold, #ff9811)"/>
<path d="M308 338H204C197.373 338 192 343.373 192 350C192 356.627 197.373 362 204 362H308C314.627 362 320 356.627 320 350C320 343.373 314.627 338 308 338Z" fill="var(--flag-palette-bright-red, #d80027)"/>
<path d="M324 350H188C181.373 350 176 355.373 176 362C176 368.627 181.373 374 188 374H324C330.627 374 336 368.627 336 362C336 355.373 330.627 350 324 350Z" fill="var(--flag-palette-white, #eeeeee)"/>
<path d="M242 191L256 149L270 191L234 165H278L242 191Z" fill="var(--flag-palette-yellow, #ffda44)"/>
</svg>

<svg xmlns="http://www.w3.org/2000/svg" width="512" height="512" fill="none"><path fill="var(--flag-palette-yellow, #ffda44)" d="M0 0h512v512H0z"/><path fill="var(--flag-palette-bright-red, #d80027)" d="m256 114-6 2-95 78c-4 3-4 9-1 13l102-33 102 33c3-4 3-10-1-13l-95-78z"/><path fill="var(--flag-palette-green, #6da544)" d="m256 134-99 72 6 22 51-32 42 25 42-25 51 32 6-22z"/><path fill="var(--flag-palette-black, #333333)" d="m256 191-28 60-9-21-10 21-7-16-10 21-7-16-13 27 14 23h140l14-23-12-27-8 16-10-21-7 16-10-21-9 21z"/><path fill="var(--flag-palette-light-blue, #338af3)" d="m183 290 11 32h124l11-32z"/><path fill="var(--flag-palette-white, #eeeeee)" d="M256 129a4 4 0 0 0-2 1l-100 73a4 4 0 0 0-2 4l38 117a4 4 0 0 0 4 3h124a4 4 0 0 0 4-3l38-117a4 4 0 0 0-2-4l-100-73a4 4 0 0 0-2-1m0 9 95 70-36 111H197l-36-111z"/><path fill="var(--flag-palette-gold, #ff9811)" d="M261 174.5a4.5 4.5 0 0 0-9 0v133a4.5 4.5 0 0 0 9 0z"/><path fill="var(--flag-palette-bright-red, #d80027)" d="M308 338H204a12 12 0 0 0 0 24h104a12 12 0 0 0 0-24"/><path fill="var(--flag-palette-white, #eeeeee)" d="M324 350H188a12 12 0 0 0 0 24h136a12 12 0 0 0 0-24"/><path fill="var(--flag-palette-yellow, #ffda44)" d="m242 191 14-42 14 42-36-26h44z"/></svg>
